!!!OTL: Folk song Number 8
!!!CNT: Chinese
**kern
*k[f#]
*M2/4
=1
8r
8a
8a
8e
=2
8a
8a
4r
=3
(8.dd
16b)
4a
=4
(8.dd
16b)
4a
=5
8a
8dd
8b
8a
=6
8g
8a
4e
=7
8a
8d
8b
8a
=8
8g
8a
4e
=9
8r
8dd
8dd
8dd
!! page 6
=10
4dd
(8.b
16ff#)
=11
2ee
=12
8b
16ee
16ee
8d
8b
=13
(8a
16b
16a)
(8g
8e)
=14
(4.dd
8b)
=15
2ee
=16
8a
16a
16a
8a
8dd
=17
4a
(8g
8e)
=18
8a
8a
8a
8a
=19
4dd
8e
8e
=20
(4.d
8e)
=21
4g
4b
=22
8e
8e
4d
=23
8b
8b
8a
8b
=24
2d
!! repeat from beginning.
=25
8r
8a
8a
8e
=26
8a
8a
4r
=27
(8.dd
16b)
4a
=28
(8.dd
16b)
4a
=29
8a
8dd
8b
8a
=30
8g
8a
4e
=31
8a
8d
8b
8a
=32
8g
8a
4e
=33
8r
8dd
8dd
8dd
!! page 6
=34
4dd
(8.b
16ff#)
=35
2ee
=36
8b
16ee
16ee
8d
8b
=37
(8a
16b
16a)
(8g
8e)
=38
(4.dd
8b)
=39
2ee
=40
8a
16a
16a
8a
8dd
=41
4a
(8g
8e)
=42
8a
8a
8a
8a
=43
4dd
8e
8e
=44
(4.d
8e)
=45
4g
4b
=46
8e
8e
4d
=47
8b
8b
8a
8b
!! Final ending.
=48
2dd;
==
*-
!!!PPR: Yin yueh ch'u pan she
!!!OPR: Chung-kuo min ko Chung-kuo yin yueh yen chiu so pien [Chinese folk songs]
!!!OCL: Chung-kuo yin yueh yen chiu so
!!!PPP: Beijing, China
!!!PDT: 1959///
!!!SML: Edward Johnson Library, University of Toronto M1804.C4694C5
!!!PPG: pp.5-6
!!!ENC: David Huron
!!!EMD: Paul von Hippel updated this file in the following ways (1998/9/29/):
!!!EMD:  (1) changed the representation of slurs from curly braces to parentheses 
!!!EMD:  (2) changed freeform comments into reference records and tandem interpretations
!!!EMD:  (3) corrected the author, title, author, and call number of the printed source 
!!!EEV: Version 2.0
